src/static/images/logo.svg

<?xml version="1.0" encoding="UTF-8"?>
<!DOCTYPE svg  PUBLIC '-//W3C//DTD SVG 1.1//EN'  'http://www.w3.org/Graphics/SVG/1.1/DTD/svg11.dtd'>
<svg clip-rule="evenodd" fill-rule="evenodd" stroke-linejoin="round" stroke-miterlimit="2" version="1.1" viewBox="0 0 136 170" xml:space="preserve" xmlns="http://www.w3.org/2000/svg">
    <g transform="translate(-45 -1280.4)">
        <g transform="translate(24)">
            <g transform="matrix(1.0356 0 0 1 -3.5971 0)">
                <path d="m117 1426.5c0-1.93-1.514-3.5-3.38-3.5h-49.382c-1.866 0-3.38 1.57-3.38 3.5s1.514 3.5 3.38 3.5h49.382c1.866 0 3.38-1.57 3.38-3.5z" fill="#c7c7c7"/>
            </g>
            <g transform="matrix(1.0356 0 0 1 -3.5971 10.148)">
                <path d="m117 1426.5c0-1.93-1.514-3.5-3.38-3.5h-49.382c-1.866 0-3.38 1.57-3.38 3.5s1.514 3.5 3.38 3.5h49.382c1.866 0 3.38-1.57 3.38-3.5z" fill="#c7c7c7"/>
            </g>
            <g transform="matrix(.67938 0 0 1 28.083 20.295)">
                <path d="m117 1426.5c0-1.93-2.308-3.5-5.152-3.5h-45.838c-2.843 0-5.152 1.57-5.152 3.5s2.309 3.5 5.152 3.5h45.838c2.844 0 5.152-1.57 5.152-3.5z" fill="#c7c7c7"/>
            </g>
            <g transform="matrix(1.0141 0 0 1.0141 236.98 -10.459)">
                <circle cx="-146.43" cy="1339.6" r="66.564" fill="none"/>
            </g>
            <g transform="translate(.21531)">
                <path d="m97.909 1300c-3.043-0.59-6.19-0.9-9.409-0.9-3.373 0-6.666 0.34-9.848 0.99l-6.809-17.53c5.327-1.35 10.909-2.07 16.657-2.07 5.592 0 11.026 0.68 16.226 1.96l-6.817 17.55z" fill="#e01a60"/>
            </g>
            <g transform="matrix(.051839 .99866 -.99866 .051839 1430 1189.9)">
                <path d="m97.909 1300c-3.043-0.59-6.19-0.9-9.409-0.9-3.373 0-6.666 0.34-9.848 0.99l-6.809-17.53c5.327-1.35 10.909-2.07 16.657-2.07 5.592 0 11.026 0.68 16.226 1.96l-6.817 17.55z" fill="#f7f08a"/>
            </g>
            <g transform="matrix(-1 1.3878e-16 -1.3878e-16 -1 176.78 2695.9)">
                <path d="m97.909 1300c-3.043-0.59-6.19-0.9-9.409-0.9-3.373 0-6.666 0.34-9.848 0.99l-6.809-17.53c5.327-1.35 10.909-2.07 16.657-2.07 5.592 0 11.026 0.68 16.226 1.96l-6.817 17.55z" fill="#655fa9"/>
            </g>
            <g transform="matrix(0 -1 1 0 -1259.4 1436.2)">
                <path d="m97.909 1300c-3.043-0.59-6.19-0.9-9.409-0.9-3.373 0-6.666 0.34-9.848 0.99l-6.809-17.53c5.327-1.35 10.909-2.07 16.657-2.07 5.592 0 11.026 0.68 16.226 1.96l-6.817 17.55z" fill="#be1e2d"/>
            </g>
            <path d="m121.15 1288.9c9.451 5.23 17.516 12.67 23.499 21.62l-17.14 8c-3.702-4.89-8.302-9.07-13.553-12.28l7.194-17.34z" fill="#e15e43"/>
            <g transform="matrix(6.1232e-17 1 -1 6.1232e-17 1436.4 1259.4)">
                <path d="m121.15 1288.9c9.451 5.23 17.516 12.67 23.499 21.62l-17.14 8c-3.702-4.89-8.302-9.07-13.553-12.28l7.194-17.34z" fill="#f3a144"/>
            </g>
            <g transform="matrix(-1 1.2246e-16 -1.2246e-16 -1 177 2695.9)">
                <path d="m121.15 1288.9c9.451 5.23 17.516 12.67 23.499 21.62l-17.14 8c-3.702-4.89-8.302-9.07-13.553-12.28l7.194-17.34z" fill="#4bc6ec"/>
            </g>
            <g transform="matrix(-1.837e-16 -1 1 -1.837e-16 -1259.4 1436.4)">
                <path d="m121.15 1288.9c9.451 5.23 17.516 12.67 23.499 21.62l-17.14 8c-3.702-4.89-8.302-9.07-13.553-12.28l7.194-17.34z" fill="#ad4297"/>
            </g>
        </g>
    </g>
</svg>

<?xml version="1.0" encoding="UTF-8" standalone="no"?>
<!DOCTYPE svg PUBLIC "-//W3C//DTD SVG 1.1//EN" "http://www.w3.org/Graphics/SVG/1.1/DTD/svg11.dtd">
<svg width="100%" height="100%" viewBox="0 0 136 170" version="1.1" xmlns="http://www.w3.org/2000/svg" xmlns:xlink="http://www.w3.org/1999/xlink" xml:space="preserve" xmlns:serif="http://www.serif.com/" style="fill-rule:evenodd;clip-rule:evenodd;stroke-linejoin:round;stroke-miterlimit:2;">
    <g transform="matrix(1,0,0,1,-45,-1280.44)">
        <g transform="matrix(1,0,0,1,24,0)">
            <g transform="matrix(1.03562,0,0,1,-3.59706,0)">
                <path d="M117,1426.5C117,1424.57 115.486,1423 113.62,1423L64.238,1423C62.372,1423 60.858,1424.57 60.858,1426.5C60.858,1428.43 62.372,1430 64.238,1430L113.62,1430C115.486,1430 117,1428.43 117,1426.5Z" style="fill:rgb(199,199,199);"/>
            </g>
            <g transform="matrix(1.03562,0,0,1,-3.59706,10.1476)">
                <path d="M117,1426.5C117,1424.57 115.486,1423 113.62,1423L64.238,1423C62.372,1423 60.858,1424.57 60.858,1426.5C60.858,1428.43 62.372,1430 64.238,1430L113.62,1430C115.486,1430 117,1428.43 117,1426.5Z" style="fill:rgb(199,199,199);"/>
            </g>
            <g transform="matrix(0.679384,0,0,1,28.083,20.2951)">
                <path d="M117,1426.5C117,1424.57 114.692,1423 111.848,1423L66.01,1423C63.167,1423 60.858,1424.57 60.858,1426.5C60.858,1428.43 63.167,1430 66.01,1430L111.848,1430C114.692,1430 117,1428.43 117,1426.5Z" style="fill:rgb(199,199,199);"/>
            </g>
            <g transform="matrix(1.01406,0,0,1.01406,236.985,-10.4586)">
                <circle cx="-146.426" cy="1339.56" r="66.564" style="fill:none;"/>
            </g>
            <g transform="matrix(1,0,0,1,0.215308,0)">
                <path d="M97.909,1299.95C94.866,1299.36 91.719,1299.05 88.5,1299.05C85.127,1299.05 81.834,1299.39 78.652,1300.04L71.843,1282.51C77.17,1281.16 82.752,1280.44 88.5,1280.44C94.092,1280.44 99.526,1281.12 104.726,1282.4L97.909,1299.95Z" style="fill:rgb(224,26,96);"/>
            </g>
            <g transform="matrix(0.0518392,0.998655,-0.998655,0.0518392,1430.05,1189.89)">
                <path d="M97.909,1299.95C94.866,1299.36 91.719,1299.05 88.5,1299.05C85.127,1299.05 81.834,1299.39 78.652,1300.04L71.843,1282.51C77.17,1281.16 82.752,1280.44 88.5,1280.44C94.092,1280.44 99.526,1281.12 104.726,1282.4L97.909,1299.95Z" style="fill:rgb(247,240,138);"/>
            </g>
            <g transform="matrix(-1,1.38778e-16,-1.38778e-16,-1,176.785,2695.87)">
                <path d="M97.909,1299.95C94.866,1299.36 91.719,1299.05 88.5,1299.05C85.127,1299.05 81.834,1299.39 78.652,1300.04L71.843,1282.51C77.17,1281.16 82.752,1280.44 88.5,1280.44C94.092,1280.44 99.526,1281.12 104.726,1282.4L97.909,1299.95Z" style="fill:rgb(101,95,169);"/>
            </g>
            <g transform="matrix(0,-1,1,0,-1259.44,1436.22)">
                <path d="M97.909,1299.95C94.866,1299.36 91.719,1299.05 88.5,1299.05C85.127,1299.05 81.834,1299.39 78.652,1300.04L71.843,1282.51C77.17,1281.16 82.752,1280.44 88.5,1280.44C94.092,1280.44 99.526,1281.12 104.726,1282.4L97.909,1299.95Z" style="fill:rgb(190,30,45);"/>
            </g>
            <path d="M121.15,1288.86C130.601,1294.09 138.666,1301.53 144.649,1310.48L127.509,1318.48C123.807,1313.59 119.207,1309.41 113.956,1306.2L121.15,1288.86Z" style="fill:rgb(225,94,67);"/>
            <g transform="matrix(6.12323e-17,1,-1,6.12323e-17,1436.44,1259.44)">
                <path d="M121.15,1288.86C130.601,1294.09 138.666,1301.53 144.649,1310.48L127.509,1318.48C123.807,1313.59 119.207,1309.41 113.956,1306.2L121.15,1288.86Z" style="fill:rgb(243,161,68);"/>
            </g>
            <g transform="matrix(-1,1.22465e-16,-1.22465e-16,-1,177,2695.87)">
                <path d="M121.15,1288.86C130.601,1294.09 138.666,1301.53 144.649,1310.48L127.509,1318.48C123.807,1313.59 119.207,1309.41 113.956,1306.2L121.15,1288.86Z" style="fill:rgb(75,198,236);"/>
            </g>
            <g transform="matrix(-1.83697e-16,-1,1,-1.83697e-16,-1259.44,1436.44)">
                <path d="M121.15,1288.86C130.601,1294.09 138.666,1301.53 144.649,1310.48L127.509,1318.48C123.807,1313.59 119.207,1309.41 113.956,1306.2L121.15,1288.86Z" style="fill:rgb(173,66,151);"/>
            </g>
        </g>
    </g>
</svg>
